app/assets/img/work/ttl-pcp-pc.svg

<svg fill="none" height="25" viewBox="0 0 61 25" width="61" xmlns="http://www.w3.org/2000/svg"><path d="m6.328 16.208v7.792h-5.408v-23.312h8.224c1.6427 0 3.0507.197333 4.224.592 1.184.384 2.1547.91733 2.912 1.6.768.68267 1.3333 1.488 1.696 2.416s.544 1.93067.544 3.008c0 1.16267-.1867 2.2293-.56 3.2s-.944 1.8027-1.712 2.496-1.744 1.2373-2.928 1.632c-1.1733.384-2.5653.576-4.176.576zm0-4.08h2.816c1.408 0 2.4213-.336 3.04-1.008s.928-1.61067.928-2.816c0-.53333-.08-1.01867-.24-1.456s-.4053-.81067-.736-1.12c-.32-.32-.7307-.56533-1.232-.736-.4907-.17067-1.07733-.256-1.76-.256h-2.816zm30.9823 5.84c.128 0 .256.0267.384.08.128.0427.2506.1227.368.24l2.144 2.256c-.9387 1.2267-2.1174 2.1547-3.5361 2.784-1.4079.6187-3.0773.928-5.0079.928-1.7707 0-3.36-.2987-4.7681-.896-1.3973-.608-2.5866-1.44-3.568-2.496-.9706-1.0667-1.7173-2.3253-2.24-3.776-.5226-1.4613-.784-3.0453-.784-4.752 0-1.7387.2987-3.33333.896-4.784.5974-1.46133 1.4294-2.72 2.496-3.776 1.0774-1.056 2.3627-1.87733 3.8561-2.464 1.4933-.586668 3.1413-.880001 4.944-.880001.8746 0 1.696.08 2.464.24.7786.149333 1.504.362661 2.176.640001.672.26667 1.2906.592 1.856.976.5653.37333 1.0666.78933 1.504 1.248l-1.8241 2.448c-.1173.14933-.2559.288-.4159.416-.16.11733-.384.176-.672.176-.192 0-.3734-.04267-.5441-.128-.1706-.08533-.3519-.18667-.5439-.304-.192-.128-.4054-.26133-.6401-.4-.2239-.14933-.4959-.28267-.816-.4-.3093-.128-.6773-.23467-1.1039-.32-.416-.08533-.9067-.128-1.472-.128-.9814 0-1.8774.176-2.688.528-.8107.34133-1.5094.83733-2.0961 1.488-.576.64-1.0293 1.41867-1.3599 2.336-.32.9173-.48 1.9467-.48 3.088 0 1.1947.16 2.256.48 3.184.3306.928.7733 1.712 1.328 2.352.5653.6293 1.2213 1.1093 1.968 1.44.7466.3307 1.5466.496 2.3999.496.4907 0 .9387-.0213 1.3441-.064.4053-.0533.7786-.1387 1.12-.256.352-.1173.6826-.2667.992-.448.32-.192.64-.4267.96-.704.1279-.1067.2666-.192.416-.256.1493-.0747.304-.112.464-.112zm11.0952-1.76v7.792h-5.408v-23.312h8.224c1.6427 0 3.0507.197333 4.224.592 1.184.384 2.1547.91733 2.912 1.6.768.68267 1.3333 1.488 1.696 2.416s.544 1.93067.544 3.008c0 1.16267-.1867 2.2293-.56 3.2s-.944 1.8027-1.712 2.496-1.744 1.2373-2.928 1.632c-1.1733.384-2.5653.576-4.176.576zm0-4.08h2.816c1.408 0 2.4213-.336 3.04-1.008s.928-1.61067.928-2.816c0-.53333-.08-1.01867-.24-1.456s-.4053-.81067-.736-1.12c-.32-.32-.7307-.56533-1.232-.736-.4907-.17067-1.0773-.256-1.76-.256h-2.816z" fill="#121111"/></svg>

<svg width="61" height="25" viewBox="0 0 61 25" fill="none" xmlns="http://www.w3.org/2000/svg">
<path d="M6.328 16.208V24H0.92V0.688H9.144C10.7867 0.688 12.1947 0.885333 13.368 1.28C14.552 1.664 15.5227 2.19733 16.28 2.88C17.048 3.56267 17.6133 4.368 17.976 5.296C18.3387 6.224 18.52 7.22667 18.52 8.304C18.52 9.46667 18.3333 10.5333 17.96 11.504C17.5867 12.4747 17.016 13.3067 16.248 14C15.48 14.6933 14.504 15.2373 13.32 15.632C12.1467 16.016 10.7547 16.208 9.144 16.208H6.328ZM6.328 12.128H9.144C10.552 12.128 11.5653 11.792 12.184 11.12C12.8027 10.448 13.112 9.50933 13.112 8.304C13.112 7.77067 13.032 7.28533 12.872 6.848C12.712 6.41067 12.4667 6.03733 12.136 5.728C11.816 5.408 11.4053 5.16267 10.904 4.992C10.4133 4.82133 9.82667 4.736 9.144 4.736H6.328V12.128ZM37.3103 17.968C37.4383 17.968 37.5663 17.9947 37.6943 18.048C37.8223 18.0907 37.9449 18.1707 38.0623 18.288L40.2063 20.544C39.2676 21.7707 38.0889 22.6987 36.6702 23.328C35.2623 23.9467 33.5929 24.256 31.6623 24.256C29.8916 24.256 28.3023 23.9573 26.8942 23.36C25.4969 22.752 24.3076 21.92 23.3262 20.864C22.3556 19.7973 21.6089 18.5387 21.0862 17.088C20.5636 15.6267 20.3022 14.0427 20.3022 12.336C20.3022 10.5973 20.6009 9.00267 21.1982 7.552C21.7956 6.09067 22.6276 4.832 23.6942 3.776C24.7716 2.72 26.0569 1.89867 27.5503 1.312C29.0436 0.725332 30.6916 0.431999 32.4943 0.431999C33.3689 0.431999 34.1903 0.511999 34.9583 0.671999C35.7369 0.821332 36.4623 1.03466 37.1343 1.312C37.8063 1.57867 38.4249 1.904 38.9903 2.288C39.5556 2.66133 40.0569 3.07733 40.4943 3.536L38.6702 5.984C38.5529 6.13333 38.4143 6.272 38.2543 6.4C38.0943 6.51733 37.8703 6.576 37.5823 6.576C37.3903 6.576 37.2089 6.53333 37.0382 6.448C36.8676 6.36267 36.6863 6.26133 36.4943 6.144C36.3023 6.016 36.0889 5.88267 35.8542 5.744C35.6303 5.59467 35.3583 5.46133 35.0382 5.344C34.7289 5.216 34.3609 5.10933 33.9343 5.024C33.5183 4.93867 33.0276 4.896 32.4623 4.896C31.4809 4.896 30.5849 5.072 29.7743 5.424C28.9636 5.76533 28.2649 6.26133 27.6782 6.912C27.1022 7.552 26.6489 8.33067 26.3183 9.248C25.9983 10.1653 25.8383 11.1947 25.8383 12.336C25.8383 13.5307 25.9983 14.592 26.3183 15.52C26.6489 16.448 27.0916 17.232 27.6463 17.872C28.2116 18.5013 28.8676 18.9813 29.6143 19.312C30.3609 19.6427 31.1609 19.808 32.0142 19.808C32.5049 19.808 32.9529 19.7867 33.3583 19.744C33.7636 19.6907 34.1369 19.6053 34.4783 19.488C34.8303 19.3707 35.1609 19.2213 35.4703 19.04C35.7903 18.848 36.1103 18.6133 36.4303 18.336C36.5582 18.2293 36.6969 18.144 36.8463 18.08C36.9956 18.0053 37.1503 17.968 37.3103 17.968ZM48.4055 16.208V24H42.9975V0.688H51.2215C52.8642 0.688 54.2722 0.885333 55.4455 1.28C56.6295 1.664 57.6002 2.19733 58.3575 2.88C59.1255 3.56267 59.6908 4.368 60.0535 5.296C60.4162 6.224 60.5975 7.22667 60.5975 8.304C60.5975 9.46667 60.4108 10.5333 60.0375 11.504C59.6642 12.4747 59.0935 13.3067 58.3255 14C57.5575 14.6933 56.5815 15.2373 55.3975 15.632C54.2242 16.016 52.8322 16.208 51.2215 16.208H48.4055ZM48.4055 12.128H51.2215C52.6295 12.128 53.6428 11.792 54.2615 11.12C54.8802 10.448 55.1895 9.50933 55.1895 8.304C55.1895 7.77067 55.1095 7.28533 54.9495 6.848C54.7895 6.41067 54.5442 6.03733 54.2135 5.728C53.8935 5.408 53.4828 5.16267 52.9815 4.992C52.4908 4.82133 51.9042 4.736 51.2215 4.736H48.4055V12.128Z" fill="#121111"/>
</svg>
